icons/ArrowRightNarrow_filled.svg

<svg width="24" height="24" viewBox="0 0 24 24" fill="none" xmlns="http://www.w3.org/2000/svg">
<path fill-rule="evenodd" clip-rule="evenodd" d="M19.8839,11.1161c0.4881,0.4882 0.4881,1.2796 0,1.7678l-4,4c-0.4882,0.4881 -1.2796,0.4881 -1.7678,0c-0.4881,-0.4882 -0.4881,-1.2796 0,-1.7678l1.8661,-1.8661h-10.9822c-0.69036,0 -1.25,-0.5596 -1.25,-1.25c0,-0.6904 0.55964,-1.25 1.25,-1.25h10.9822l-1.8661,-1.86612c-0.4881,-0.48815 -0.4881,-1.27961 0,-1.76776c0.4882,-0.48816 1.2796,-0.48816 1.7678,0z" fill="#002B51"/>
</svg>

<svg width="24" height="24" viewBox="0 0 24 24" fill="none" xmlns="http://www.w3.org/2000/svg">
<path fill-rule="evenodd" clip-rule="evenodd" d="M19.8839 11.1161C20.372 11.6043 20.372 12.3957 19.8839 12.8839L15.8839 16.8839C15.3957 17.372 14.6043 17.372 14.1161 16.8839C13.628 16.3957 13.628 15.6043 14.1161 15.1161L15.9822 13.25H5C4.30964 13.25 3.75 12.6904 3.75 12C3.75 11.3096 4.30964 10.75 5 10.75H15.9822L14.1161 8.88388C13.628 8.39573 13.628 7.60427 14.1161 7.11612C14.6043 6.62796 15.3957 6.62796 15.8839 7.11612L19.8839 11.1161Z" fill="#002B51"/>
</svg>
